build/img/landings/context/advantage-4.svg

<svg width="476" height="559" viewBox="0 0 476 559" fill="none" xmlns="http://www.w3.org/2000/svg">
<path d="M328.828 112.996C328.151 112.522 327.613 111.875 327.272 111.123C326.931 110.372 326.8 109.543 326.891 108.726C326.982 107.908 327.292 107.131 327.79 106.478C328.288 105.824 328.954 105.318 329.718 105.012L452.959 55.6367C454.085 55.1857 455.347 55.2006 456.468 55.6781C457.588 56.1556 458.476 57.0567 458.934 58.183C459.393 59.3093 459.386 60.5687 458.914 61.6841C458.442 62.7994 457.544 63.6794 456.418 64.1304L333.173 113.5C332.466 113.783 331.698 113.886 330.939 113.798C330.181 113.71 329.455 113.434 328.828 112.996Z" fill="#22183B"/>
<path d="M415.513 146.667C414.898 146.238 414.398 145.665 414.057 144.998L356.622 33.3869C356.065 32.305 355.96 31.0494 356.331 29.8962C356.702 28.7429 357.517 27.7866 358.598 27.2375C359.679 26.6885 360.937 26.5916 362.095 26.9684C363.253 27.3451 364.216 28.1645 364.773 29.2463L422.207 140.859C422.675 141.77 422.825 142.809 422.634 143.81C422.442 144.812 421.92 145.719 421.15 146.387C420.381 147.055 419.408 147.445 418.386 147.496C417.364 147.547 416.353 147.255 415.513 146.667Z" fill="#22183B"/>
<path d="M285.71 290.751C288.58 287.899 291.406 285.012 294.19 282.091C296.985 279.183 299.694 276.197 302.38 273.199C305.066 270.201 307.661 267.122 310.236 264.039C312.81 260.956 315.292 257.794 317.734 254.609C317.776 254.554 317.82 254.5 317.866 254.45L317.938 254.372C321.731 250.219 325.266 245.844 328.526 241.272C331.827 236.711 334.879 231.98 337.67 227.098C340.477 222.214 343.09 217.211 345.507 212.09C346.122 210.815 346.699 209.522 347.283 208.234C347.878 206.959 348.474 205.573 349.07 204.249C349.716 202.913 350.456 201.585 351.146 200.254L353.277 196.39L353.153 196.636C355.011 192.635 356.871 188.627 358.598 184.56C360.325 180.494 361.989 176.398 363.574 172.27C366.73 164.008 369.582 155.621 372.215 147.142C372.38 146.603 372.749 146.147 373.246 145.869C373.742 145.592 374.328 145.513 374.881 145.65C375.435 145.786 375.914 146.128 376.219 146.604C376.525 147.08 376.633 147.653 376.522 148.205C374.737 157.044 372.445 165.776 369.656 174.358C366.883 182.964 363.654 191.42 359.982 199.692L359.937 199.79L359.857 199.941L357.901 203.688C357.296 204.927 356.654 206.128 356.077 207.396C355.521 208.709 355.018 209.975 354.421 211.326C353.825 212.66 353.242 214 352.617 215.324C350.154 220.633 347.506 225.88 344.559 230.978C341.59 236.078 338.348 241.018 334.847 245.778C331.303 250.526 327.468 255.055 323.363 259.341L323.562 259.105C320.938 262.283 318.254 265.408 315.51 268.481C312.767 271.554 309.904 274.521 307.01 277.45C304.116 280.379 301.11 283.202 298.072 285.978C295.015 288.736 291.886 291.409 288.684 293.998C288.243 294.354 287.68 294.529 287.111 294.487C286.543 294.444 286.013 294.188 285.631 293.771C285.248 293.354 285.043 292.808 285.056 292.246C285.07 291.684 285.302 291.148 285.705 290.75L285.71 290.751Z" fill="#22183B"/>
<path d="M71.8913 368.831C76.1732 369.044 80.4512 369.197 84.7252 369.293C88.998 369.407 93.2691 369.398 97.5347 369.362C101.8 369.326 106.064 369.162 110.316 368.978C114.567 368.794 118.816 368.482 123.054 368.121C123.127 368.115 123.201 368.111 123.272 368.111L123.386 368.112C129.345 368.119 135.295 367.766 141.203 367.056C147.132 366.387 153.017 365.401 158.834 364.104C164.665 362.817 170.449 361.293 176.188 359.531C177.625 359.104 179.051 358.632 180.477 358.171C181.901 357.728 183.413 357.206 184.876 356.727C186.383 356.28 187.952 355.911 189.488 355.502L194.036 354.414L193.755 354.492C198.217 353.093 202.685 351.689 207.105 350.14C211.525 348.591 215.922 346.971 220.289 345.267C229.017 341.843 237.626 338.092 246.151 334.104C246.692 333.848 247.312 333.812 247.884 334.003C248.455 334.193 248.934 334.596 249.222 335.127C249.509 335.658 249.583 336.277 249.427 336.856C249.272 337.435 248.899 337.929 248.387 338.236C240.183 343.144 231.703 347.58 222.986 351.52C214.261 355.489 205.329 358.995 196.225 362.022L196.116 362.056L195.941 362.101L191.609 363.242C190.206 363.653 188.806 364.007 187.401 364.46C185.976 364.962 184.624 365.471 183.139 365.968C181.668 366.453 180.202 366.953 178.718 367.407C172.8 369.267 166.799 370.937 160.701 372.267C154.586 373.581 148.401 374.567 142.173 375.222C135.925 375.834 129.64 376.063 123.355 375.907L123.681 375.894C119.32 376.106 114.956 376.235 110.591 376.278C106.226 376.323 101.859 376.198 97.5004 376.021C93.1415 375.845 88.7856 375.505 84.4439 375.106C80.1027 374.681 75.7761 374.138 71.4643 373.478C70.8708 373.386 70.3325 373.07 69.9607 372.594C69.5889 372.119 69.4119 371.521 69.4664 370.924C69.5208 370.327 69.8025 369.777 70.2533 369.386C70.7041 368.996 71.2894 368.796 71.8885 368.827L71.8913 368.831Z" fill="#22183B"/>
<path d="M-128.902 388.123C-125.737 386.684 -122.559 385.29 -119.366 383.942C-116.18 382.58 -112.959 381.312 -109.735 380.066C-106.511 378.82 -103.25 377.671 -99.9933 376.541C-96.7362 375.411 -93.4439 374.379 -90.1457 373.387C-90.0887 373.37 -90.0321 373.351 -89.9781 373.33L-89.8931 373.295C-85.405 371.511 -80.8191 370.002 -76.1604 368.776C-71.4982 367.512 -66.7767 366.501 -62.0158 365.747C-57.248 364.981 -52.4454 364.408 -47.608 364.028C-46.4004 363.923 -45.1887 363.854 -43.9797 363.778C-42.7779 363.688 -41.4868 363.632 -40.2451 363.557C-38.9787 363.446 -37.6894 363.257 -36.413 363.108L-32.6687 362.574L-32.9036 362.599C-29.1339 362.327 -25.3582 362.055 -21.5766 361.908C-17.795 361.762 -14.0103 361.675 -10.2232 361.662C-2.64935 361.649 4.93087 361.918 12.5161 362.393C12.9978 362.424 13.4757 362.267 13.8509 361.952C14.2261 361.637 14.4698 361.189 14.5315 360.701C14.5932 360.213 14.4682 359.723 14.1825 359.331C13.8967 358.939 13.472 358.677 12.9964 358.597C5.38518 357.33 -2.29695 356.504 -10.0129 356.123C-17.7435 355.722 -25.4953 355.735 -33.2363 356.161L-33.3287 356.168L-33.4738 356.186L-37.0702 356.615C-38.2474 356.723 -39.4048 356.873 -40.5953 356.95C-41.8159 356.995 -42.9829 357.013 -44.246 357.08C-45.4956 357.152 -46.7459 357.212 -47.9968 357.31C-52.9976 357.669 -58.0061 358.196 -62.9878 359.01C-67.9783 359.841 -72.9256 360.94 -77.8089 362.304C-82.6953 363.706 -87.4972 365.409 -92.1877 367.403L-91.9377 367.316C-95.286 368.457 -98.6112 369.662 -101.913 370.932C-105.215 372.202 -108.468 373.6 -111.701 375.035C-114.934 376.47 -118.117 378.027 -121.272 379.625C-124.419 381.243 -127.521 382.946 -130.577 384.733C-130.998 384.98 -131.311 385.38 -131.453 385.85C-131.595 386.321 -131.554 386.827 -131.339 387.262C-131.124 387.698 -130.751 388.031 -130.298 388.192C-129.844 388.353 -129.345 388.33 -128.903 388.127L-128.902 388.123Z" fill="#22183B"/>
</svg>

<svg width="476" height="559" fill="none" xmlns="http://www.w3.org/2000/svg"><path d="M328.828 112.996a4.614 4.614 0 01-1.556-1.873 4.575 4.575 0 01-.381-2.397 4.531 4.531 0 012.827-3.714l123.241-49.375a4.595 4.595 0 013.509.041 4.617 4.617 0 012.466 2.505 4.563 4.563 0 01-.02 3.501 4.542 4.542 0 01-2.496 2.446L333.173 113.5a4.59 4.59 0 01-4.345-.504z" fill="#22183B"/><path d="M415.513 146.667a4.573 4.573 0 01-1.456-1.669L356.622 33.387a4.569 4.569 0 01-.291-3.49 4.54 4.54 0 012.267-2.66 4.588 4.588 0 013.497-.269 4.62 4.62 0 012.678 2.278l57.434 111.613a4.58 4.58 0 01.427 2.951 4.54 4.54 0 01-1.484 2.577 4.559 4.559 0 01-2.764 1.109 4.61 4.61 0 01-2.873-.829zM285.71 290.751a446.319 446.319 0 008.48-8.66c2.795-2.908 5.504-5.894 8.19-8.892 2.686-2.998 5.281-6.077 7.856-9.16 2.574-3.083 5.056-6.245 7.498-9.43a2.27 2.27 0 01.132-.159l.072-.078a139.632 139.632 0 0010.588-13.1 157.502 157.502 0 009.144-14.174 209.904 209.904 0 007.837-15.008c.615-1.275 1.192-2.568 1.776-3.856.595-1.275 1.191-2.661 1.787-3.985.646-1.336 1.386-2.664 2.076-3.995l2.131-3.864-.124.246c1.858-4.001 3.718-8.009 5.445-12.076a378.375 378.375 0 004.976-12.29c3.156-8.262 6.008-16.649 8.641-25.128a2.197 2.197 0 011.031-1.273 2.249 2.249 0 011.635-.219 2.215 2.215 0 011.338.954c.306.476.414 1.049.303 1.601a235.353 235.353 0 01-6.866 26.153 255.792 255.792 0 01-9.674 25.334l-.045.098-.08.151-1.956 3.747c-.605 1.239-1.247 2.44-1.824 3.708-.556 1.313-1.059 2.579-1.656 3.93-.596 1.334-1.179 2.674-1.804 3.998-2.463 5.309-5.111 10.556-8.058 15.654a165.572 165.572 0 01-9.712 14.8 145.013 145.013 0 01-11.484 13.563l.199-.236a319.354 319.354 0 01-8.052 9.376c-2.743 3.073-5.606 6.04-8.5 8.969-2.894 2.929-5.9 5.752-8.938 8.528a228.255 228.255 0 01-9.388 8.02 2.242 2.242 0 01-3.053-.227 2.179 2.179 0 01-.575-1.525 2.179 2.179 0 01.649-1.496l.005.001zm-213.819 78.08c4.282.213 8.56.366 12.834.462 4.273.114 8.544.105 12.81.069 4.265-.036 8.529-.2 12.781-.384 4.251-.184 8.5-.496 12.738-.857a2.69 2.69 0 01.218-.01l.114.001a147.87 147.87 0 0017.817-1.056 167.115 167.115 0 0017.631-2.952 222.472 222.472 0 0017.354-4.573c1.437-.427 2.863-.899 4.289-1.36 1.424-.443 2.936-.965 4.399-1.444 1.507-.447 3.076-.816 4.612-1.225l4.548-1.088-.281.078c4.462-1.399 8.93-2.803 13.35-4.352a402.168 402.168 0 0013.184-4.873c8.728-3.424 17.337-7.175 25.862-11.163a2.326 2.326 0 011.733-.101 2.38 2.38 0 011.338 1.124c.287.531.361 1.15.205 1.729a2.302 2.302 0 01-1.04 1.38 250.217 250.217 0 01-25.401 13.284 271.507 271.507 0 01-26.761 10.502l-.109.034-.175.045-4.332 1.141c-1.403.411-2.803.765-4.208 1.218-1.425.502-2.777 1.011-4.262 1.508-1.471.485-2.937.985-4.421 1.439-5.918 1.86-11.919 3.53-18.017 4.86-6.115 1.314-12.3 2.3-18.528 2.955-6.248.612-12.533.841-18.818.685l.326-.013c-4.361.212-8.725.341-13.09.384-4.365.045-8.732-.08-13.09-.257-4.36-.176-8.715-.516-13.057-.915a240.89 240.89 0 01-12.98-1.628 2.37 2.37 0 01-1.998-2.554 2.31 2.31 0 01.787-1.538 2.314 2.314 0 011.635-.559l.003.004zm-200.793 19.292a382.095 382.095 0 019.536-4.181c3.186-1.362 6.407-2.63 9.631-3.876s6.485-2.395 9.742-3.525c3.257-1.13 6.55-2.162 9.847-3.154.057-.017.114-.036.168-.057l.085-.035a119.536 119.536 0 0113.733-4.519 134.393 134.393 0 0114.144-3.029 179.32 179.32 0 0114.408-1.719c1.208-.105 2.42-.174 3.628-.25 1.202-.09 2.493-.146 3.735-.221 1.266-.111 2.556-.3 3.832-.449l3.744-.534-.235.025c3.77-.272 7.546-.544 11.327-.691a323.02 323.02 0 0111.354-.246c7.574-.013 15.154.256 22.74.731.48.031.959-.126 1.334-.441.375-.315.619-.763.68-1.251a1.916 1.916 0 00-.349-1.37 1.844 1.844 0 00-1.186-.734 200.27 200.27 0 00-23.009-2.474 217.543 217.543 0 00-23.223.038l-.093.007-.145.018-3.596.429c-1.177.108-2.335.258-3.525.335-1.22.045-2.388.063-3.651.13-1.25.072-2.5.132-3.75.23-5.002.359-10.01.886-14.992 1.7-4.99.831-9.938 1.93-14.82 3.294a124.562 124.562 0 00-14.38 5.099l.25-.087a273.699 273.699 0 00-9.975 3.616c-3.302 1.27-6.555 2.668-9.788 4.103-3.233 1.435-6.416 2.992-9.571 4.59a195.717 195.717 0 00-9.305 5.108 1.948 1.948 0 00-.762 2.529c.215.436.588.769 1.041.93.454.161.953.138 1.395-.065l.001-.004z" fill="#22183B"/></svg>
